X: 90
T:Muiñeira de Portela
M:6/8
L:1/8
Q:200
C:Trad.
S:Rep. Ricardo Portela
R:Muiñeira
K:C
CEG | cBA GAG | E2 C EGF| DB,C DEF/2"F."G/2 | "W"F2 E CEG |
cBA GAG | E2 C EGF |DB,C DED | C2 "F."G :| |: CEC | ECE GFE/2"F."G/2 |
"W"E2 D B,DB,| DB,D FED/2"F."G/2 | "W"D2 C/2"F."G/2 CEC| ECE GFE/2"F."G/
2 | "W"E2 D B,DB,|
DB,D FED | C2 "F."G :||

